X: 21010
T: Julia's Wedding
R: hornpipe
M: 4/4
K: Gmajor
|:dc|BGcG (3BAG AF|GFGA Bdef|gfge dBGB|cA (3BAG AGEF|
G2BG AGEF|GFGA Bdef|gfge dBGB|ADEF G2:|
|:Bc|dBGB ecAc|gfga gdBd|bagb agfa|gfge dcBc|
dBGB ecAc|gfga gdBd|bagb agfa|fdef g2:|

